X: 1
T: Aandowin' At Da Bow
M: 4/4
L: 1/8
R: reel
K: Gmaj
A|BGAG E2DA|BGAG BGAd|BGAG E2DE|GABA G3:|
g|egdB AGEg|egdg egdg|egdB AGEf|g2~g2 afgd|
egdg egdg|egdB AGED|GABG E2DE|GABA G3||
